app/dist/common/images/camden-national.svg

<svg height="18" viewBox="0 0 18 18" width="18" xmlns="http://www.w3.org/2000/svg"><path d="m0 0h18v18h-18z" fill="#f0f3fa"/><path d="m4.44 8.9a4.53 4.53 0 0 1 7.42-3.41c.25.2.57.51.9.51h1.24c-1.09-1.74-3.04-3.1-5.24-3a5.97 5.97 0 0 0 -5.76 6.05c0 .77.16 1.28.42 1.96h1.56a3.94 3.94 0 0 1 -.54-2.1z" fill="#0096d6"/><path d="m12.63 12c-.32 0-.48.23-.74.42-.67.58-1.46.94-2.36 1.06v-4.48h1.11c.51 0 .96-.34.96-.9v-.1h-2.08c.39-.2.7-.63.7-1.12 0-.67-.5-1.23-1.2-1.23s-1.2.5-1.2 1.2c0 .48.22.96.63 1.15h-2.12v.1c0 .56.44.9.95.9h1.22v4.52c-.9-.1-1.8-.49-2.46-1.03-.26-.23-.58-.49-.9-.49h-1.24c1.05 1.7 2.9 3 5.05 3a5.95 5.95 0 0 0 5.05-3zm-3.61-5.7a.5.5 0 0 1 .51.52c0 .29-.23.52-.51.52a.52.52 0 0 1 -.52-.52.5.5 0 0 1 .52-.51z" fill="#005587"/></svg>

<!-- by TradingView --><svg width="18" height="18" viewBox="0 0 18 18" xmlns="http://www.w3.org/2000/svg"><path fill="#F0F3FA" d="M0 0h18v18H0z"/><path d="M4.44 8.9a4.53 4.53 0 0 1 7.42-3.41c.25.2.57.51.9.51H14c-1.09-1.74-3.04-3.1-5.24-3A5.97 5.97 0 0 0 3 9.05c0 .77.16 1.28.42 1.96h1.56a3.94 3.94 0 0 1-.54-2.1Z" fill="#0096D6"/><path d="M12.63 12c-.32 0-.48.23-.74.42-.67.58-1.46.94-2.36 1.06V9h1.11c.51 0 .96-.34.96-.9V8H9.52c.39-.2.7-.63.7-1.12 0-.67-.5-1.23-1.2-1.23s-1.2.5-1.2 1.2c0 .48.22.96.63 1.15H6.33v.1c0 .56.44.9.95.9H8.5v4.52c-.9-.1-1.8-.49-2.46-1.03-.26-.23-.58-.49-.9-.49H3.9c1.05 1.7 2.9 3 5.05 3A5.95 5.95 0 0 0 14 12H12.63ZM9.02 6.3a.5.5 0 0 1 .51.52c0 .29-.23.52-.51.52a.52.52 0 0 1-.52-.52.5.5 0 0 1 .52-.51Z" fill="#005587"/></svg>
